Obsidian-SemiLight/actions/16s/align-horizontal-top-out.svg

<svg viewBox="0 0 16 16" xmlns="http://www.w3.org/2000/svg"><path d="m9 2v2h5v-2zm-7 3v1h12v-1zm0 2v7h5v-7zm7 0v5h5v-5zm-6 1h3v5h-3zm7 0h3v3h-3z" fill="#4d4d4d"/></svg>

<svg xmlns="http://www.w3.org/2000/svg" viewBox="0 0 16 16">
  <defs id="defs3051">
    <style type="text/css" id="current-color-scheme">
      .ColorScheme-Text {
        color:#4d4d4d;
      }
      </style>
  </defs>
 <path style="fill:currentColor;fill-opacity:1;stroke:none" 
       d="M 9 2 L 9 4 L 14 4 L 14 2 L 9 2 z M 2 5 L 2 6 L 14 6 L 14 5 L 2 5 z M 2 7 L 2 14 L 7 14 L 7 7 L 2 7 z M 9 7 L 9 12 L 14 12 L 14 7 L 9 7 z M 3 8 L 6 8 L 6 13 L 3 13 L 3 8 z M 10 8 L 13 8 L 13 11 L 10 11 L 10 8 z "
     class="ColorScheme-Text"
     />
</svg>
